X: 577
T: Pingding xiaodiao
L: 1/16
M: 2/4
K: G
d2 d2 g2 e d [I:setbarnb 1]| 
d2A6 | 
g2 d2 c2 B A | 
G8 | 
G2> A2d4 | 
B d B A G2 d2 | 
F2> E2 D2 G2 | 
E G E D C D E2 | 
D8 |]

@@@ Tune index: 9451
